la/ruler-solid.svg

<svg xmlns="http://www.w3.org/2000/svg" viewBox="0 0 32 32" height="1em" width="1em">
  <path d="M 20.53125 3.59375 L 3.59375 20.53125 L 11.46875 28.40625 L 28.40625 11.46875 Z M 20.53125 6.4375 L 25.5625 11.46875 L 11.46875 25.5625 L 6.4375 20.53125 L 7.59375 19.375 L 9.75 21.53125 L 11.1875 20.125 L 9 17.9375 L 10.1875 16.78125 L 11.0625 17.65625 L 12.46875 16.21875 L 11.59375 15.375 L 12.78125 14.1875 L 14.9375 16.34375 L 16.34375 14.9375 L 14.1875 12.78125 L 15.375 11.59375 L 16.21875 12.46875 L 17.65625 11.0625 L 16.78125 10.1875 L 17.9375 9 L 20.125 11.1875 L 21.53125 9.75 L 19.375 7.59375 Z"/>
</svg>

<svg xmlns="http://www.w3.org/2000/svg" viewBox="0 0 32 32" height="1em" width="1em">
  <path d="M20.531 3.594 3.594 20.53l7.875 7.875L28.406 11.47Zm0 2.844 5.032 5.03-14.094 14.095-5.031-5.032 1.156-1.156 2.156 2.156 1.438-1.406L9 17.937l1.188-1.156.874.875 1.407-1.437-.875-.844 1.187-1.188 2.156 2.157 1.407-1.407-2.157-2.156 1.188-1.187.844.875 1.437-1.406-.875-.876L17.938 9l2.187 2.188 1.406-1.438-2.156-2.156Z"/>
</svg>
